X:6560
T:Green Grows The Rashes. BF13.105
M:4/4
Q:120
S:J.Lishman()MS,c1825,Lakes,Browne Coll.
R:Air
O:England
A:Lakes
Z:vmp.Chris Partington
K:D
d2|B3A A-B d-e|(d/e/f) ~e>dd3f|e3f gfga|b2e-fe3f|!
gfga (g/a/b) a>g|f>e d/e/f/g/ {fg}a2gf|e2b2g-fe>-f|d2B>-dB2::!
d2|B>-AB>dB2a2|(fef)af2e>d|e>-de>-f e2 e'2|(bac'd') b2 (a/b/d')|!
(BAB)dB2a>g|f>e (d/e/f/g/) {fg}a2gf|e2b2gfe>f|d2B>-dB2::!
"VARIATION"d2|(BAB)d ABde|f/(a/g/f/) (e/g/f/e/) d>e (f/e/f/d/)|e2E>F "si
c"G/F/G/A/|BAGFE2e>f|!
gG (g/f/g/a/) (g/a/b) ~a>g|f>e d/e/f/g/ (f/g/a) g>f|e2b2a-f-e>-f|d2B>-dB
